build/Karasa-Jaga/scalable/status/folder-open-symbolic.svg

<svg height="16" width="16" xmlns="http://www.w3.org/2000/svg"><g fill="#ccc"><path d="m1.7714843 1.474616c-.2281974 0-.3164586.2107768-.4121094.4277344l-.2402344.5429688.099609 4.703125c.00895-.0004971.019339.00306.027344-.00195h3.1953126l.5273438-.4160188h-3v-3.21875h12.0625001v2.4882812h.808593l.03906-2.9355468c.009903-.2368992-.181951-.4277344-.410153-.4277344h-8.4882813l-.7421876-1.1621094z"/><path d="m1.0037087 7.1464942h3.1960643l1.4486719-1.1733648h9.3481201c.23712 0 .446448.1916138.428016.4280169l-.518141 6.6455097c-.01843.236402-.190895.428015-.428015.428015h-12.9565758c-.23712 0-.4056633-.191952-.4280156-.428015l-.51814466-5.4721446c-.02235245-.2360654.2270079-.3022301.42801976-.4280172z"/></g></svg>

<?xml version="1.0" encoding="UTF-8" standalone="no"?>
<!-- Created with Inkscape (http://www.inkscape.org/) -->

<svg
   xmlns:dc="http://purl.org/dc/elements/1.1/"
   xmlns:cc="http://creativecommons.org/ns#"
   xmlns:rdf="http://www.w3.org/1999/02/22-rdf-syntax-ns#"
   xmlns:svg="http://www.w3.org/2000/svg"
   xmlns="http://www.w3.org/2000/svg"
   xmlns:xlink="http://www.w3.org/1999/xlink"
   xmlns:sodipodi="http://sodipodi.sourceforge.net/DTD/sodipodi-0.dtd"
   xmlns:inkscape="http://www.inkscape.org/namespaces/inkscape"
   id="svg7384"
   height="16"
   width="16"
   version="1.1"
   inkscape:version="0.92.2 (unknown)"
   sodipodi:docname="folder-open-symbolic.svg">
  <defs
     id="defs8853">
    <linearGradient
       id="linearGradient4565">
      <stop
         id="stop4567"
         offset="0"
         style="stop-color:#161616;stop-opacity:1;" />
      <stop
         id="stop4569"
         offset="1"
         style="stop-color:#3a3a3a;stop-opacity:1;" />
    </linearGradient>
    <linearGradient
       inkscape:collect="always"
       xlink:href="#linearGradient4565"
       id="linearGradient4548"
       gradientUnits="userSpaceOnUse"
       x1="136.23065"
       y1="40.918156"
       x2="54.675591"
       y2="-40.636906" />
  </defs>
  <sodipodi:namedview
     pagecolor="#ffffff"
     bordercolor="#666666"
     borderopacity="1"
     objecttolerance="10"
     gridtolerance="10"
     guidetolerance="10"
     inkscape:pageopacity="0"
     inkscape:pageshadow="2"
     inkscape:window-width="1366"
     inkscape:window-height="706"
     id="namedview8851"
     showgrid="false"
     inkscape:zoom="2.6074563"
     inkscape:cx="-101.70678"
     inkscape:cy="-30.047583"
     inkscape:window-x="0"
     inkscape:window-y="0"
     inkscape:window-maximized="1"
     inkscape:current-layer="svg7384" />
  <metadata
     id="metadata90">
    <rdf:RDF>
      <cc:Work
         rdf:about="">
        <dc:format>image/svg+xml</dc:format>
        <dc:type
           rdf:resource="http://purl.org/dc/dcmitype/StillImage" />
        <dc:title>Gnome Symbolic Icon Theme</dc:title>
      </cc:Work>
    </rdf:RDF>
  </metadata>
  <title
     id="title9167">Gnome Symbolic Icon Theme</title>
  <path
     id="path4924-5"
     d="m 1.7714843,1.474616 c -0.2281974,0 -0.3164586,0.2107768 -0.4121094,0.4277344 l -0.2402344,0.5429688 0.099609,4.703125 c 0.00895,-4.971e-4 0.019339,0.00306 0.027344,-0.00195 H 4.4414061 L 4.9687499,6.7304754 h -3 v -3.21875 H 14.03125 v 2.4882812 h 0.808593 l 0.03906,-2.9355468 C 14.888806,2.8275606 14.696952,2.6367254 14.46875,2.6367254 H 5.9804687 L 5.2382811,1.474616 Z"
     clip-path="none"
     mask="none"
     style="display:inline;fill:#cccccc;fill-opacity:1;stroke:none"
     inkscape:connector-curvature="0" />
  <path
     sodipodi:nodetypes="sccssssssss"
     inkscape:connector-curvature="0"
     id="path4932"
     d="M 1.0037087,7.1464942 H 4.199773 L 5.6484449,5.9731294 h 9.3481201 c 0.23712,0 0.446448,0.1916138 0.428016,0.4280169 L 14.90644,13.046656 c -0.01843,0.236402 -0.190895,0.428015 -0.428015,0.428015 H 1.5218492 c -0.23712,0 -0.4056633,-0.191952 -0.4280156,-0.428015 L 0.57568894,7.5745114 C 0.55333649,7.338446 0.80269684,7.2722813 1.0037087,7.1464942 Z"
     style="fill:#cccccc;fill-opacity:1;stroke:none" />
</svg>
